X:1
T:Shepherd's Farewell string quartet accompaniment
T:Shepherd's Farewell (string quartet accompaniment) 
T:from "L'Enfance du Christ" 
T:Hector Berlioz
C:Hector Berlioz
%%score [ 1 2 3 4 ]
L:1/8
Q:3/8=80
M:3/8
K:E
V:1 treble nm="Violin I"
V:2 treble nm="Violin II"
V:3 alto nm="Viola"
V:4 bass nm="Violoncello"
V:1
"^Tranquillo"!mf!{/^A} B3 |{/^A} B3 | AEF | G3 ||!p! G2 B | A2 c | BAG | FE^E | F2 ^^F | G2 E | %10
 ABc | F3 | G2 E | A2 c | FAG | FE!f!e | d2 c | B2 d | cB^A | G3 |!p! A2 F | A2 F | AFG | GFE | %24
 e2 c | d2 ^B | cde |!<(! !fermata!f3!<)! |!f! f=ge | =dB=G |!mf! B=cA |"_dim." =GE=C | B,2 E | %33
 =G2 F | EA=G |"^poco rit."!<(! .F3!<)! |!p! B2 c | BGE | GF>E | E3 ||!f!{/^A} B3 |{/^A} B3 | AEF | %43
 G3 ||!p! G2 B | A2 c | BAG | FE^E | F2 ^^F | G2 E | ABc | F3 | G2 E | A2 c | FAG | FE!f!e | d2 c | %57
 B2 d | cB^A | G3 |!p! =A2 F | A2 F | AFG | GFE | e2 c | d2 ^B | cde |!>(! !fermata!f3!>)! | %68
!f! f=ge | =dB=G | B=cA | =GE=C | B,2 E | =G2 F | EA=G |"^poco rit."!<(! F3!<)! |!p! B2 c | BGE | %78
 GF>E | E3 |{/^A} B3 |{/^A} B3 | AEF | G3 ||!p! G2 B | A2 c | BAG | FE^E | F2 ^^F | G2 E | ABc | %91
 F3 | G2 E | A2 c | FAG | FE!f!e | d2 c | B2 d | cB^A | G3 |!p! =A2 F | A2 F | AFG | GFE | e2 c | %105
 d2 ^B | cde |!>(! !fermata!f3!>)! |!f! f=ge | =dB=G | B=cA | =GE=C | B,2 E | =G2 F | EA=G | %115
!<(! F3!<)! |!p! B2 c | BGE | GF>E | E3 |!pp!{/^A} B3 |{/^A} B3 | AEF | G3- | G3- | !fermata!G3 |] %126
V:2
!mf!{/^^F} G3 |{/^^F} G3 | FCD | E3 ||!p! (B,E)G | E2 E/D/ | E2 D | CCC | C2 C | B,2 B, | F2 E | %11
 D3 | z E.B,- | B,EA | z FE | DC!f!c- | cB^A- | AGB | ^AG=G | G3 |!p! F2 F | F2 F | F2 E | C2 B, | %24
 z AG | A2 G | G^Bc |!<(! !fermata!d3!<)! |!f! =d2 ^B | B=G=D |!mf! =G2 =F |"_dim." E=C=G, | %32
 B,2 =C | =DE=C | B,DE |!<(! E3!<)! |!p! D2 A | GEE | ED>B, | B,3 ||!f!{/^^F} G3 |{/^^F} G3 | FCD | %43
 E3 ||!p! B,EG | E2 E/D/ | E2 D | CCC | C2 C | B,2 B, | F2 E | D3 | z E.B,- | B,EA | z FE | %55
 DC!f!c- | cB^A- | AGB | ^AG^^F | G3 |!p! F2 F | F2 F | F2 E | C2 B, | z AG | A2 G | G^Bc | %67
!>(! !fermata!d3!>)! |!f! =d2 =c | B=G=D | =G2 =F | E=C=G, | B,2 =C | =DE^B, | B,DE |!<(! E3!<)! | %76
!p! D2 A | GEE | ED>B, | B,3 |{/^^F} G3 |{/^^F} G3 | FCD | E3 ||!p! B,EG | E2 E/D/ | E2 D | CCC | %88
 C2 C | B,2 B, | F2 E | D3 | z EB,- | B,EA | z FE | DC!f!c- | cB^A- | AGB | ^AG^^F | G3 |!p! F2 F | %101
 F2 F | F2 E | C2 B, | z AG | A2 G | G^Bc |!>(! !fermata!d3!>)! |!f! =d2 =c | B=G=D | =G2 =F | %111
 E=C=G, | B,2 =C | =DE^B, | B,DE |!<(! E3!<)! |!p! D2 A | GEE | ED>B, | B,3 |!pp!{/^^F} G3 | %121
{/^^F} G3 | FCD | E3- | E3- | !fermata!E3 |] %126
V:3
!mf! B,3 | B,3 | C3 | B,3 ||!p! E,2 E, | E,2 F, | B,2 B, | A,A,G, | A,2 E, | E,2 E, | C2 C | B,3 | %12
 z B,.G,- | G,E,E, | B,2 B, | ^B,C!f!F, | F,2 ^^F, | G,2 G, | G,2 ^A, | B,3 |!p! C2 C | =C2 C | %22
 B,/B,/B,B, | A,2 E, | z EE | F2 D | E[F,F][G,E] |!<(! !fermata!A,3!<)! |!f! B,2 =G, | B,=DB, | %30
!mf! E2 =C |"_dim." =C=G,G, | F, =G,2 | =G,2 A, | B,2 B, |!<(! A, F,2!<)! |!p! F,2 F, | G,2 G, | %38
 B,A,>G, | G,3 ||!f! B,3 | B,3 | C3 | B,3 ||!p! E,2 E, | E,2 F, | B,2 B, | A,A,G, | A,2 E, | %49
 E,2 E, | C2 C | B,3 | z B,.G,- | G,E,E, | B,2 B, | ^B,C!f!F, | F,2 ^^F, | G,2 G, | G,2 ^A, | B,3 | %60
!p! C2 C | =C2 C | B,/B,/B,B, | A,2 E, | z EE | F2 D | EF,G, |!>(! !fermata!A,3!>)! |!f! B,2 =G, | %69
 B,=DB, | E2 =C | =C=G,G, | F, =G,2 | =G,2 A, | B,2 B, |!<(! A, F,2!<)! |!p! F,2 F, | G,2 G, | %78
 B,A,>G, | G,3 | B,3 | B,3 | C3 | B,3 ||!p! E,2 E, | E,2 F, | B,2 B, | A,A,G, | A,2 E, | E,2 E, | %90
 C2 C | B,3 | z B,G,- | G,E,E, | B,2 B, | ^B,C!f!F, | F,2 ^^F, | G,2 G, | G,2 ^A, | B,3 |!p! C2 C | %101
 =C2 C | B,/B,/B,B, | A,2 E, | z EE | F2 D | EF,G, |!>(! !fermata!A,3!>)! |!f! B,2 =G, | B,=DB, | %110
 E2 =C | =C=G,G, | F, =G,2 | =G,2 A, | B,2 B, |!<(! A, F,2!<)! |!p! F,2 F, | G,2 G, | B,A,>G, | %119
 G,3 |!pp! B,3 | B,3 | C3 | B,3- | B,3- | !fermata!B,3 |] %126
V:4
!mf! E,3 | E,3 | A,3 | E,3 ||!p!!p! [E,,B,,]2 [E,,B,,] | C,2 A,, | G,,A,,B,, | C,C,B,, | A,,2 A,, | %9
 G,,2 G,, | F,,G,,A,, | B,,3 | =D,2 D, | C,2 C, | D,2 E, | A,,A,,!f!^A,, | (B,,/C,/D,)E, | %17
 D,B,,G,, | C,D,-D,/D,/ | G,,3 |!p! F,3 | E,3 | D,/D,/D,E, | A,,2 G,, | C,2 C, | F,2 F, | E,D,C, | %27
!<(! !fermata!^B,,3!<)! |!f! B,,2 ^B,, | =G,2 G, |!mf! E,2 =F, |"_dim." =C,2 E, | D,E,=C, | %33
 B,,=C,A,, | =G,,F,,E,, |!<(! A,,B,,=C,!<)! |!p! B,,2 A,, | E,2 C, | B,,2- B,,/E,,/ | E,,3 || %40
!f! E,,3 | E,,3 | A,,3 | E,,3 ||!p!!p! [E,,B,,]2 [E,,B,,] | C,2 A,, | G,,A,,B,, | C,C,B,, | %48
 A,,2 A,, | G,,2 G,, | F,,G,,A,, | B,,3 | =D,2 D, | C,2 C, | D,2 E, | A,,A,,!f!^A,, | B,,/C,/D,E, | %57
 D,B,,G,, | C,D,-D,/D,/ | G,,3 |!p! F,3 | E,3 | D,/D,/D,E, | A,,2 G,, | C,2 C, | F,2 F, | E,D,C, | %67
!>(! !fermata!^B,,3!>)! |!f! B,,2 =C, | =G,2 G, | E,2 =F, | =C,2 E, | D,E,=C, | B,,=C,A,, | %74
 =G,,F,,E,, |!<(! A,,B,,^B,,!<)! |!p! =B,,2 A,, | E,2 C, | B,,2- B,,/E,,/ | E,,3 | E,3 | E,3 | %82
 A,3 | E,3 ||!p!!p! [E,,B,,]2 [E,,B,,] | C,2 A,, | G,,A,,B,, | C,C,B,, | A,,2 A,, | G,,2 G,, | %90
 F,,G,,A,, | B,,3 | =D,2 D, | C,2 C, | D,2 E, | A,,A,,!f!^A,, | B,,/C,/D,E, | D,B,,G,, | %98
 C,D,-D,/D,/ | G,,3 |!p! F,3 | E,3 | D,/D,/D,E, | A,,2 G,, | C,2 C, | F,2 F, | E,D,C, | %107
!>(! !fermata!^B,,3!>)! |!f! B,,2 =C, | =G,2 G, | E,2 =F, | =C,2 E, | D,E,=C, | B,,=C,A,, | %114
 =G,,F,,E,, |!<(! A,,B,,^B,,!<)! |!p! =B,,2 A,, | E,2 C, | B,,2- B,,/E,,/ | E,,3 |!pp! E,3 | E,3 | %122
 A,3 | E,3- | E,3- | !fermata!E,3 |] %126

